packages/foundations/assets/icons/functional/images/devices/printer_28.svg

<svg width="28" height="28" viewBox="0 0 28 28" fill="none" xmlns="http://www.w3.org/2000/svg">
<g clip-path="url(#clip0_185_774)">
<path fill-rule="evenodd" clip-rule="evenodd" d="M19.25 1.75C20.207 1.75 21 2.54258 21 3.5V5.25H23.625C25.0742 5.25 26.25 6.4253 26.25 7.875V16.625C26.25 18.0744 25.0742 19.25 23.625 19.25H21V24.5C21 25.4574 20.207 26.25 19.25 26.25H8.75C7.79292 26.25 7 25.4574 7 24.5V19.25H4.375C2.92574 19.25 1.75 18.0744 1.75 16.625V7.875C1.75 6.42556 2.92574 5.25 4.375 5.25H7V3.5C7 2.54258 7.79292 1.75 8.75 1.75H19.25ZM19.25 15.75H8.75V24.5H19.25V15.75ZM23.625 7H4.375C3.88281 7 3.5 7.38202 3.5 7.875V16.625C3.5 17.118 3.88281 17.5 4.375 17.5H7V15.75C7 14.7926 7.79292 14 8.75 14H19.25C20.207 14 21 14.7926 21 15.75V17.5H23.625C24.1172 17.5 24.5 17.118 24.5 16.625V7.875C24.5 7.38202 24.1172 7 23.625 7ZM19.25 3.5H8.75V5.25H19.25V3.5ZM7 9.625C7 9.13281 7.38281 8.75 7.875 8.75H11.375C11.8672 8.75 12.25 9.13281 12.25 9.625C12.25 10.1172 11.8672 10.5 11.375 10.5H7.875C7.38281 10.5 7 10.1172 7 9.625ZM10.5 21.875C10.5 21.3828 10.8828 21 11.375 21H16.625C17.1172 21 17.5 21.3828 17.5 21.875C17.5 22.3672 17.1172 22.75 16.625 22.75H11.375C10.8828 22.75 10.5 22.3672 10.5 21.875ZM10.5 18.375C10.5 17.8828 10.8828 17.5 11.375 17.5H16.625C17.1172 17.5 17.5 17.8828 17.5 18.375C17.5 18.8672 17.1172 19.25 16.625 19.25H11.375C10.8828 19.25 10.5 18.8672 10.5 18.375Z" fill="#1A1C1F"/>
</g>
<defs>
<clipPath id="clip0_185_774">
<rect width="28" height="28" fill="white"/>
</clipPath>
</defs>
</svg>

<svg xmlns="http://www.w3.org/2000/svg" width="28" height="28" fill="none"><g clip-path="url(#a)"><path fill="#1A1C1F" fill-rule="evenodd" d="M19.25 1.75c.957 0 1.75.793 1.75 1.75v1.75h2.625a2.625 2.625 0 0 1 2.625 2.625v8.75a2.626 2.626 0 0 1-2.625 2.625H21v5.25c0 .957-.793 1.75-1.75 1.75H8.75c-.957 0-1.75-.793-1.75-1.75v-5.25H4.375a2.626 2.626 0 0 1-2.625-2.625v-8.75A2.626 2.626 0 0 1 4.375 5.25H7V3.5c0-.957.793-1.75 1.75-1.75zm0 14H8.75v8.75h10.5zM23.625 7H4.375a.863.863 0 0 0-.875.875v8.75c0 .493.383.875.875.875H7v-1.75c0-.957.793-1.75 1.75-1.75h10.5c.957 0 1.75.793 1.75 1.75v1.75h2.625a.863.863 0 0 0 .875-.875v-8.75A.863.863 0 0 0 23.625 7M19.25 3.5H8.75v1.75h10.5zM7 9.625c0-.492.383-.875.875-.875h3.5c.492 0 .875.383.875.875a.864.864 0 0 1-.875.875h-3.5A.864.864 0 0 1 7 9.625m3.5 12.25c0-.492.383-.875.875-.875h5.25c.492 0 .875.383.875.875a.864.864 0 0 1-.875.875h-5.25a.864.864 0 0 1-.875-.875m0-3.5c0-.492.383-.875.875-.875h5.25c.492 0 .875.383.875.875a.864.864 0 0 1-.875.875h-5.25a.864.864 0 0 1-.875-.875" clip-rule="evenodd"/></g><defs><clipPath id="a"><path fill="#fff" d="M0 0h28v28H0z"/></clipPath></defs></svg>
